X: 4
T: Lady Roslyn's Rout
%R: reel
B: "Twenty Four Country Dances with Figures for the Year 1809", Button & Whitaker, p.2 #2
F: http://www.vwml.org/browse/browse-collections-dance-tune-books/browse-button1809
Z: 2014 John Chambers <jc:trillian.mit.edu>
M: C|
L: 1/8
K: D
% - - - - - - - - - - - - - - - - - - - - - - - - - - - - -
|:\
{de}f2(ed) (AF)(Ad) | (fe)(fg) (ad)(ef) | (ag)(fe) (fa)(fd) | (BG)(ed) (cA)(Bc) |
{de}f2(ed) (AF)(Ad) | (fe)(fg) (ad)(ef) | (ag)(fe) (fa)(fd) | ({c}BA)(Bc) d2z2 :|
|:\
{cd}e2(dc) (df)(fa) | (ge)(fg) (fa)(fd) | {cd}e2(dc) (df)(af) | (ec)(dB) (Ac)(de) |
{de}f2 (ed) (AF)(Ad) | (fe)(fg) (ad)(ef) | {a}g2(fe) (fa)(fd) | ({c}BA)(Bc) d2z2 :|
% - - - - - - - - - - Dance description - - - - - - - - - -
%%begintext align
%% Cast off 2 Cu: up again, down the mid: up again, to the top,
%% swing corners, foot it & lead outsides.
%%endtext

%%sep 1 1 500
%%sep 1 1 500
